X:2
T:Star of County Down Harmony
M:4/4
L:1/8
C:Irish
K:C
z|z2 z E/E/ AA BA/B/|cB/A/ EE E2z2|z2zE/E/ AA BA/B/|
cB/A/ DD A2 z G|cc cG BB BA/B/|cB/A/ EE E2 z2|
z2 z E/E/ AA BA/B/|cB/A/ DDA2zG|cc cG BB BA/B/|
cB/A/ EE E2 z2|z2z E/E/ AA BA/B/|cB/A/ DD A2 z|

